X:144
T:Seqestered Beauty, The
T:An Euchdag
R:Slow Air
S:Simon Fraser Collection
N:No.107
O:Scottish
M:3/4
L:1/8
Q:1/4=130
K:B_
B>c|d2B2f2|(c2 B)z A>c|d2G2B2|(F2 D)z D>E|
F3G B2|(B2 c)z d>e|d2B2c2|B3z:|
|:d>e|f2d2f2|(g2 G)z A>B|c2A2f2|(A2 F)z B>G|
F3G B2|(B2 c)z d>e|d2B2c2|B3 z:|

